images/6605057.svg

<?xml version="1.0" encoding="UTF-8"?>
<svg xmlns="http://www.w3.org/2000/svg" xmlns:xlink="http://www.w3.org/1999/xlink" width="300pt" height="300pt" viewBox="0 0 300 300" version="1.1">
<defs>
<g>
<symbol overflow="visible" id="glyph0-0">
<path style="stroke:none;" d="M 0.453125 1.59375 L 0.453125 -6.34375 L 4.953125 -6.34375 L 4.953125 1.59375 Z M 0.953125 1.09375 L 4.453125 1.09375 L 4.453125 -5.84375 L 0.953125 -5.84375 Z M 0.953125 1.09375 "/>
</symbol>
<symbol overflow="visible" id="glyph0-1">
<path style="stroke:none;" d="M 0.890625 -6.5625 L 2.078125 -6.5625 L 4.984375 -1.078125 L 4.984375 -6.5625 L 5.84375 -6.5625 L 5.84375 0 L 4.65625 0 L 1.75 -5.484375 L 1.75 0 L 0.890625 0 Z M 0.890625 -6.5625 "/>
</symbol>
<symbol overflow="visible" id="glyph0-2">
<path style="stroke:none;" d="M 0.890625 -6.5625 L 1.765625 -6.5625 L 1.765625 -3.875 L 5 -3.875 L 5 -6.5625 L 5.890625 -6.5625 L 5.890625 0 L 5 0 L 5 -3.125 L 1.765625 -3.125 L 1.765625 0 L 0.890625 0 Z M 0.890625 -6.5625 "/>
</symbol>
<symbol overflow="visible" id="glyph0-3">
<path style="stroke:none;" d="M 3.546875 -5.953125 C 2.898438 -5.953125 2.382812 -5.710938 2 -5.234375 C 1.625 -4.753906 1.4375 -4.101562 1.4375 -3.28125 C 1.4375 -2.445312 1.625 -1.789062 2 -1.3125 C 2.382812 -0.832031 2.898438 -0.59375 3.546875 -0.59375 C 4.191406 -0.59375 4.703125 -0.832031 5.078125 -1.3125 C 5.453125 -1.789062 5.640625 -2.445312 5.640625 -3.28125 C 5.640625 -4.101562 5.453125 -4.753906 5.078125 -5.234375 C 4.703125 -5.710938 4.191406 -5.953125 3.546875 -5.953125 Z M 3.546875 -6.6875 C 4.460938 -6.6875 5.195312 -6.375 5.75 -5.75 C 6.300781 -5.132812 6.578125 -4.3125 6.578125 -3.28125 C 6.578125 -2.238281 6.300781 -1.410156 5.75 -0.796875 C 5.195312 -0.179688 4.460938 0.125 3.546875 0.125 C 2.617188 0.125 1.878906 -0.179688 1.328125 -0.796875 C 0.773438 -1.410156 0.5 -2.238281 0.5 -3.28125 C 0.5 -4.3125 0.773438 -5.132812 1.328125 -5.75 C 1.878906 -6.375 2.617188 -6.6875 3.546875 -6.6875 Z M 3.546875 -6.6875 "/>
</symbol>
<symbol overflow="visible" id="glyph0-4">
<path style="stroke:none;" d="M 0.890625 -6.5625 L 4.65625 -6.5625 L 4.65625 -5.8125 L 1.765625 -5.8125 L 1.765625 -3.875 L 4.375 -3.875 L 4.375 -3.140625 L 1.765625 -3.140625 L 1.765625 0 L 0.890625 0 Z M 0.890625 -6.5625 "/>
</symbol>
</g>
</defs>
<g id="surface46881">
<rect x="0" y="0" width="300" height="300" style="fill:rgb(100%,100%,100%);fill-opacity:1;stroke:none;"/>
<path style="fill:none;stroke-width:1.2;stroke-linecap:butt;stroke-linejoin:miter;stroke:rgb(0%,0%,0%);stroke-opacity:1;stroke-miterlimit:10;" d="M 264.75 166.800781 L 245.707031 158.421875 "/>
<path style="fill:none;stroke-width:1.2;stroke-linecap:butt;stroke-linejoin:miter;stroke:rgb(0%,0%,0%);stroke-opacity:1;stroke-miterlimit:10;" d="M 245.707031 158.421875 L 228.925781 170.722656 "/>
<path style="fill:none;stroke-width:1.2;stroke-linecap:butt;stroke-linejoin:miter;stroke:rgb(0%,0%,0%);stroke-opacity:1;stroke-miterlimit:10;" d="M 228.925781 170.722656 L 219.402344 166.53125 "/>
<path style="fill:none;stroke-width:1.2;stroke-linecap:butt;stroke-linejoin:miter;stroke:rgb(0%,0%,100%);stroke-opacity:1;stroke-miterlimit:10;" d="M 219.402344 166.53125 L 209.878906 162.34375 "/>
<path style="fill:none;stroke-width:1.2;stroke-linecap:butt;stroke-linejoin:miter;stroke:rgb(0%,0%,100%);stroke-opacity:1;stroke-miterlimit:10;" d="M 209.878906 162.34375 L 200.894531 167.582031 "/>
<path style="fill:none;stroke-width:1.2;stroke-linecap:butt;stroke-linejoin:miter;stroke:rgb(0%,0%,0%);stroke-opacity:1;stroke-miterlimit:10;" d="M 200.894531 167.582031 L 191.90625 172.824219 "/>
<path style="fill:none;stroke-width:1.2;stroke-linecap:butt;stroke-linejoin:miter;stroke:rgb(0%,0%,0%);stroke-opacity:1;stroke-miterlimit:10;" d="M 205.464844 142.007812 L 207.671875 152.175781 "/>
<path style="fill:none;stroke-width:1.2;stroke-linecap:butt;stroke-linejoin:miter;stroke:rgb(0%,0%,100%);stroke-opacity:1;stroke-miterlimit:10;" d="M 207.671875 152.175781 L 209.878906 162.34375 "/>
<path style=" stroke:none;fill-rule:nonzero;fill:rgb(100%,100%,100%);fill-opacity:1;" d="M 206.878906 156.84375 L 213.878906 156.84375 L 213.878906 167.84375 L 206.878906 167.84375 Z M 206.878906 156.84375 "/>
<g style="fill:rgb(0%,0%,100%);fill-opacity:1;">
  <use xlink:href="#glyph0-1" x="206.878906" y="165.506836"/>
</g>
<path style="fill:none;stroke-width:1.2;stroke-linecap:butt;stroke-linejoin:miter;stroke:rgb(0%,0%,0%);stroke-opacity:1;stroke-miterlimit:10;" d="M 191.90625 172.824219 L 176.382812 158.96875 "/>
<path style="fill:none;stroke-width:1.2;stroke-linecap:butt;stroke-linejoin:miter;stroke:rgb(0%,0%,0%);stroke-opacity:1;stroke-miterlimit:10;" d="M 187.09375 175.089844 L 174.675781 164.007812 "/>
<path style="fill:none;stroke-width:1.2;stroke-linecap:butt;stroke-linejoin:miter;stroke:rgb(0%,0%,100%);stroke-opacity:1;stroke-miterlimit:10;" d="M 187.667969 193.195312 L 189.789062 183.011719 "/>
<path style="fill:none;stroke-width:1.2;stroke-linecap:butt;stroke-linejoin:miter;stroke:rgb(0%,0%,0%);stroke-opacity:1;stroke-miterlimit:10;" d="M 189.789062 183.011719 L 191.90625 172.824219 "/>
<path style="fill:none;stroke-width:1.2;stroke-linecap:butt;stroke-linejoin:miter;stroke:rgb(0%,0%,0%);stroke-opacity:1;stroke-miterlimit:10;" d="M 176.382812 158.96875 L 156.625 165.484375 "/>
<path style="fill:none;stroke-width:1.2;stroke-linecap:butt;stroke-linejoin:miter;stroke:rgb(0%,0%,0%);stroke-opacity:1;stroke-miterlimit:10;" d="M 176.382812 158.96875 L 180.574219 149.445312 "/>
<path style="fill:none;stroke-width:1.2;stroke-linecap:butt;stroke-linejoin:miter;stroke:rgb(0%,0%,100%);stroke-opacity:1;stroke-miterlimit:10;" d="M 180.574219 149.445312 L 184.765625 139.925781 "/>
<path style="fill:none;stroke-width:1.2;stroke-linecap:butt;stroke-linejoin:miter;stroke:rgb(0%,0%,0%);stroke-opacity:1;stroke-miterlimit:10;" d="M 156.625 165.484375 L 154.503906 175.671875 "/>
<path style="fill:none;stroke-width:1.2;stroke-linecap:butt;stroke-linejoin:miter;stroke:rgb(0%,0%,100%);stroke-opacity:1;stroke-miterlimit:10;" d="M 154.503906 175.671875 L 152.386719 185.855469 "/>
<path style="fill:none;stroke-width:1.2;stroke-linecap:butt;stroke-linejoin:miter;stroke:rgb(0%,0%,0%);stroke-opacity:1;stroke-miterlimit:10;" d="M 160.992188 168.519531 L 159.296875 176.667969 "/>
<path style="fill:none;stroke-width:1.2;stroke-linecap:butt;stroke-linejoin:miter;stroke:rgb(0%,0%,100%);stroke-opacity:1;stroke-miterlimit:10;" d="M 159.296875 176.667969 L 157.601562 184.816406 "/>
<path style="fill:none;stroke-width:1.2;stroke-linecap:butt;stroke-linejoin:miter;stroke:rgb(0%,0%,0%);stroke-opacity:1;stroke-miterlimit:10;" d="M 156.625 165.484375 L 148.863281 158.558594 "/>
<path style="fill:none;stroke-width:1.2;stroke-linecap:butt;stroke-linejoin:miter;stroke:rgb(0%,0%,100%);stroke-opacity:1;stroke-miterlimit:10;" d="M 148.863281 158.558594 L 141.101562 151.628906 "/>
<path style="fill:none;stroke-width:1.2;stroke-linecap:butt;stroke-linejoin:miter;stroke:rgb(0%,0%,100%);stroke-opacity:1;stroke-miterlimit:10;" d="M 152.386719 185.855469 L 160.148438 192.785156 "/>
<path style="fill:none;stroke-width:1.2;stroke-linecap:butt;stroke-linejoin:miter;stroke:rgb(0%,0%,0%);stroke-opacity:1;stroke-miterlimit:10;" d="M 160.148438 192.785156 L 167.910156 199.710938 "/>
<path style=" stroke:none;fill-rule:nonzero;fill:rgb(100%,100%,100%);fill-opacity:1;" d="M 149.386719 180.355469 L 156.386719 180.355469 L 156.386719 191.355469 L 149.386719 191.355469 Z M 149.386719 180.355469 "/>
<g style="fill:rgb(0%,0%,100%);fill-opacity:1;">
  <use xlink:href="#glyph0-1" x="149.386719" y="189.018555"/>
</g>
<path style="fill:none;stroke-width:1.2;stroke-linecap:butt;stroke-linejoin:miter;stroke:rgb(0%,0%,0%);stroke-opacity:1;stroke-miterlimit:10;" d="M 167.910156 199.710938 L 177.789062 196.453125 "/>
<path style="fill:none;stroke-width:1.2;stroke-linecap:butt;stroke-linejoin:miter;stroke:rgb(0%,0%,100%);stroke-opacity:1;stroke-miterlimit:10;" d="M 177.789062 196.453125 L 187.667969 193.195312 "/>
<path style="fill:none;stroke-width:1.2;stroke-linecap:butt;stroke-linejoin:miter;stroke:rgb(0%,0%,0%);stroke-opacity:1;stroke-miterlimit:10;" d="M 168.351562 194.410156 L 176.257812 191.804688 "/>
<path style="fill:none;stroke-width:1.2;stroke-linecap:butt;stroke-linejoin:miter;stroke:rgb(0%,0%,100%);stroke-opacity:1;stroke-miterlimit:10;" d="M 176.257812 191.804688 L 184.160156 189.199219 "/>
<path style="fill:none;stroke-width:1.2;stroke-linecap:butt;stroke-linejoin:miter;stroke:rgb(0%,0%,0%);stroke-opacity:1;stroke-miterlimit:10;" d="M 167.910156 199.710938 L 163.671875 220.082031 "/>
<path style=" stroke:none;fill-rule:nonzero;fill:rgb(100%,100%,100%);fill-opacity:1;" d="M 184.667969 187.695312 L 191.667969 187.695312 L 191.667969 198.695312 L 184.667969 198.695312 Z M 184.667969 187.695312 "/>
<g style="fill:rgb(0%,0%,100%);fill-opacity:1;">
  <use xlink:href="#glyph0-1" x="184.667969" y="196.358398"/>
</g>
<path style="fill:none;stroke-width:1.2;stroke-linecap:butt;stroke-linejoin:miter;stroke:rgb(0%,0%,100%);stroke-opacity:1;stroke-miterlimit:10;" d="M 141.101562 151.628906 L 131.21875 154.886719 "/>
<path style="fill:none;stroke-width:1.2;stroke-linecap:butt;stroke-linejoin:miter;stroke:rgb(0%,0%,0%);stroke-opacity:1;stroke-miterlimit:10;" d="M 131.21875 154.886719 L 121.339844 158.144531 "/>
<path style=" stroke:none;fill-rule:nonzero;fill:rgb(100%,100%,100%);fill-opacity:1;" d="M 134.101562 146.128906 L 148.101562 146.128906 L 148.101562 157.128906 L 134.101562 157.128906 Z M 134.101562 146.128906 "/>
<g style="fill:rgb(0%,0%,100%);fill-opacity:1;">
  <use xlink:href="#glyph0-1" x="134.101562" y="154.791992"/>
  <use xlink:href="#glyph0-2" x="141.079102" y="154.791992"/>
</g>
<path style="fill:none;stroke-width:1.2;stroke-linecap:butt;stroke-linejoin:miter;stroke:rgb(0%,0%,0%);stroke-opacity:1;stroke-miterlimit:10;" d="M 121.339844 158.144531 L 105.816406 144.289062 "/>
<path style="fill:none;stroke-width:1.2;stroke-linecap:butt;stroke-linejoin:miter;stroke:rgb(0%,0%,0%);stroke-opacity:1;stroke-miterlimit:10;" d="M 105.816406 144.289062 L 86.054688 150.804688 "/>
<path style="fill:none;stroke-width:1.2;stroke-linecap:butt;stroke-linejoin:miter;stroke:rgb(0%,0%,0%);stroke-opacity:1;stroke-miterlimit:10;" d="M 86.054688 150.804688 L 78.292969 143.878906 "/>
<path style="fill:none;stroke-width:1.2;stroke-linecap:butt;stroke-linejoin:miter;stroke:rgb(0%,0%,100%);stroke-opacity:1;stroke-miterlimit:10;" d="M 78.292969 143.878906 L 70.535156 136.949219 "/>
<path style="fill:none;stroke-width:1.2;stroke-linecap:butt;stroke-linejoin:miter;stroke:rgb(0%,0%,100%);stroke-opacity:1;stroke-miterlimit:10;" d="M 70.535156 136.949219 L 72.652344 126.765625 "/>
<path style="fill:none;stroke-width:1.2;stroke-linecap:butt;stroke-linejoin:miter;stroke:rgb(0%,0%,0%);stroke-opacity:1;stroke-miterlimit:10;" d="M 72.652344 126.765625 L 74.769531 116.578125 "/>
<path style="fill:none;stroke-width:1.2;stroke-linecap:butt;stroke-linejoin:miter;stroke:rgb(0%,0%,0%);stroke-opacity:1;stroke-miterlimit:10;" d="M 50.773438 143.464844 L 60.652344 140.207031 "/>
<path style="fill:none;stroke-width:1.2;stroke-linecap:butt;stroke-linejoin:miter;stroke:rgb(0%,0%,100%);stroke-opacity:1;stroke-miterlimit:10;" d="M 60.652344 140.207031 L 70.535156 136.949219 "/>
<path style=" stroke:none;fill-rule:nonzero;fill:rgb(100%,100%,100%);fill-opacity:1;" d="M 67.535156 131.449219 L 74.535156 131.449219 L 74.535156 142.449219 L 67.535156 142.449219 Z M 67.535156 131.449219 "/>
<g style="fill:rgb(0%,0%,100%);fill-opacity:1;">
  <use xlink:href="#glyph0-1" x="67.535156" y="140.112305"/>
</g>
<path style="fill:none;stroke-width:1.2;stroke-linecap:butt;stroke-linejoin:miter;stroke:rgb(0%,0%,0%);stroke-opacity:1;stroke-miterlimit:10;" d="M 74.769531 116.578125 L 59.246094 102.722656 "/>
<path style="fill:none;stroke-width:1.2;stroke-linecap:butt;stroke-linejoin:miter;stroke:rgb(0%,0%,0%);stroke-opacity:1;stroke-miterlimit:10;" d="M 59.246094 102.722656 L 49.367188 105.984375 "/>
<path style="fill:none;stroke-width:1.2;stroke-linecap:butt;stroke-linejoin:miter;stroke:rgb(100%,0%,0%);stroke-opacity:1;stroke-miterlimit:10;" d="M 49.367188 105.984375 L 39.488281 109.242188 "/>
<path style="fill:none;stroke-width:1.2;stroke-linecap:butt;stroke-linejoin:miter;stroke:rgb(100%,0%,0%);stroke-opacity:1;stroke-miterlimit:10;" d="M 39.488281 109.242188 L 37.367188 119.425781 "/>
<path style="fill:none;stroke-width:1.2;stroke-linecap:butt;stroke-linejoin:miter;stroke:rgb(0%,0%,0%);stroke-opacity:1;stroke-miterlimit:10;" d="M 37.367188 119.425781 L 35.25 129.609375 "/>
<path style=" stroke:none;fill-rule:nonzero;fill:rgb(100%,100%,100%);fill-opacity:1;" d="M 35.488281 103.742188 L 43.488281 103.742188 L 43.488281 114.742188 L 35.488281 114.742188 Z M 35.488281 103.742188 "/>
<g style="fill:rgb(100%,0%,0%);fill-opacity:1;">
  <use xlink:href="#glyph0-3" x="35.488281" y="112.405273"/>
</g>
<path style="fill:none;stroke-width:1.2;stroke-linecap:butt;stroke-linejoin:miter;stroke:rgb(0%,0%,0%);stroke-opacity:1;stroke-miterlimit:10;" d="M 35.25 129.609375 L 50.773438 143.464844 "/>
<path style="fill:none;stroke-width:1.2;stroke-linecap:butt;stroke-linejoin:miter;stroke:rgb(0%,0%,100%);stroke-opacity:1;stroke-miterlimit:10;" d="M 184.765625 139.925781 L 195.113281 140.96875 "/>
<path style="fill:none;stroke-width:1.2;stroke-linecap:butt;stroke-linejoin:miter;stroke:rgb(0%,0%,0%);stroke-opacity:1;stroke-miterlimit:10;" d="M 195.113281 140.96875 L 205.464844 142.007812 "/>
<path style="fill:none;stroke-width:1.2;stroke-linecap:butt;stroke-linejoin:miter;stroke:rgb(0%,0%,100%);stroke-opacity:1;stroke-miterlimit:10;" d="M 186.34375 145.003906 L 194.625 145.839844 "/>
<path style="fill:none;stroke-width:1.2;stroke-linecap:butt;stroke-linejoin:miter;stroke:rgb(0%,0%,0%);stroke-opacity:1;stroke-miterlimit:10;" d="M 194.625 145.839844 L 202.90625 146.671875 "/>
<path style=" stroke:none;fill-rule:nonzero;fill:rgb(100%,100%,100%);fill-opacity:1;" d="M 181.765625 134.425781 L 188.765625 134.425781 L 188.765625 145.425781 L 181.765625 145.425781 Z M 181.765625 134.425781 "/>
<g style="fill:rgb(0%,0%,100%);fill-opacity:1;">
  <use xlink:href="#glyph0-1" x="181.765625" y="143.088867"/>
</g>
<path style="fill:none;stroke-width:1.2;stroke-linecap:butt;stroke-linejoin:miter;stroke:rgb(0%,0%,0%);stroke-opacity:1;stroke-miterlimit:10;" d="M 205.464844 142.007812 L 219.320312 126.488281 "/>
<path style="fill:none;stroke-width:1.2;stroke-linecap:butt;stroke-linejoin:miter;stroke:rgb(0%,0%,0%);stroke-opacity:1;stroke-miterlimit:10;" d="M 219.320312 126.488281 L 239.691406 130.722656 "/>
<path style="fill:none;stroke-width:1.2;stroke-linecap:butt;stroke-linejoin:miter;stroke:rgb(0%,0%,0%);stroke-opacity:1;stroke-miterlimit:10;" d="M 222.355469 122.117188 L 238.652344 125.507812 "/>
<path style="fill:none;stroke-width:1.2;stroke-linecap:butt;stroke-linejoin:miter;stroke:rgb(0%,0%,0%);stroke-opacity:1;stroke-miterlimit:10;" d="M 212.804688 106.726562 L 219.320312 126.488281 "/>
<path style="fill:none;stroke-width:1.2;stroke-linecap:butt;stroke-linejoin:miter;stroke:rgb(0%,0%,0%);stroke-opacity:1;stroke-miterlimit:10;" d="M 239.691406 130.722656 L 253.546875 115.203125 "/>
<path style="fill:none;stroke-width:1.2;stroke-linecap:butt;stroke-linejoin:miter;stroke:rgb(0%,0%,0%);stroke-opacity:1;stroke-miterlimit:10;" d="M 253.546875 115.203125 L 247.03125 95.441406 "/>
<path style="fill:none;stroke-width:1.2;stroke-linecap:butt;stroke-linejoin:miter;stroke:rgb(0%,0%,0%);stroke-opacity:1;stroke-miterlimit:10;" d="M 248.246094 114.757812 L 243.035156 98.949219 "/>
<path style="fill:none;stroke-width:1.2;stroke-linecap:butt;stroke-linejoin:miter;stroke:rgb(0%,0%,0%);stroke-opacity:1;stroke-miterlimit:10;" d="M 247.03125 95.441406 L 226.660156 91.203125 "/>
<path style="fill:none;stroke-width:1.2;stroke-linecap:butt;stroke-linejoin:miter;stroke:rgb(0%,0%,0%);stroke-opacity:1;stroke-miterlimit:10;" d="M 247.03125 95.441406 L 253.960938 87.679688 "/>
<path style="fill:none;stroke-width:1.2;stroke-linecap:butt;stroke-linejoin:miter;stroke:rgb(20%,80%,80%);stroke-opacity:1;stroke-miterlimit:10;" d="M 253.960938 87.679688 L 260.886719 79.917969 "/>
<path style="fill:none;stroke-width:1.2;stroke-linecap:butt;stroke-linejoin:miter;stroke:rgb(0%,0%,0%);stroke-opacity:1;stroke-miterlimit:10;" d="M 226.660156 91.203125 L 212.804688 106.726562 "/>
<path style="fill:none;stroke-width:1.2;stroke-linecap:butt;stroke-linejoin:miter;stroke:rgb(0%,0%,0%);stroke-opacity:1;stroke-miterlimit:10;" d="M 228.929688 96.015625 L 217.84375 108.433594 "/>
<path style=" stroke:none;fill-rule:nonzero;fill:rgb(100%,100%,100%);fill-opacity:1;" d="M 257.886719 74.417969 L 263.886719 74.417969 L 263.886719 85.417969 L 257.886719 85.417969 Z M 257.886719 74.417969 "/>
<g style="fill:rgb(20%,80%,80%);fill-opacity:1;">
  <use xlink:href="#glyph0-4" x="257.886719" y="83.081055"/>
</g>
</g>
</svg>

<svg xmlns="http://www.w3.org/2000/svg" xmlns:xlink="http://www.w3.org/1999/xlink" width="300pt" height="300pt" viewBox="0 0 300 300"><defs><symbol overflow="visible"><path d="M.453 1.594v-7.938h4.5v7.938zm.5-.5h3.5v-6.938h-3.5zm0 0"/></symbol><symbol overflow="visible" id="a"><path d="M.89-6.563H2.08l2.906 5.485v-5.484h.86V0H4.656L1.75-5.484V0H.89zm0 0"/></symbol><symbol overflow="visible" id="b"><path d="M.89-6.563h.876v2.688H5v-2.688h.89V0H5v-3.125H1.766V0H.89zm0 0"/></symbol><symbol overflow="visible" id="c"><path d="M3.547-5.953c-.65 0-1.164.242-1.547.72-.375.48-.563 1.13-.563 1.952 0 .835.188 1.49.563 1.967.383.48.898.72 1.547.72.644 0 1.156-.24 1.53-.72.376-.476.564-1.132.564-1.968 0-.822-.187-1.474-.562-1.954-.375-.477-.887-.72-1.53-.72zm0-.734c.914 0 1.648.312 2.203.937.55.617.828 1.438.828 2.47 0 1.042-.277 1.87-.828 2.483-.555.617-1.29.922-2.203.922-.93 0-1.668-.305-2.22-.922C.774-1.41.5-2.237.5-3.28c0-1.033.273-1.853.828-2.47.55-.625 1.29-.938 2.22-.938zm0 0"/></symbol><symbol overflow="visible" id="d"><path d="M.89-6.563h3.766v.75h-2.89v1.938h2.61v.734h-2.61V0H.89zm0 0"/></symbol></defs><g><path fill="#fff" d="M0 0h300v300H0z"/><path d="M264.75 166.8l-19.043-8.378M245.707 158.422l-16.78 12.3M228.926 170.723l-9.524-4.192" stroke-width="1.2" stroke="#000" stroke-miterlimit="10" fill="none"/><path d="M219.402 166.53l-9.523-4.186M209.88 162.344l-8.985 5.238" stroke-width="1.2" stroke="#00f" stroke-miterlimit="10" fill="none"/><path d="M200.895 167.582l-8.99 5.242M205.465 142.008l2.207 10.168" stroke-width="1.2" stroke="#000" stroke-miterlimit="10" fill="none"/><path d="M207.672 152.176l2.207 10.168" stroke-width="1.2" stroke="#00f" stroke-miterlimit="10" fill="none"/><path d="M206.88 156.844h7v11h-7zm0 0" fill="#fff"/><use xlink:href="#a" x="206.879" y="165.507" fill="#00f"/><path d="M191.906 172.824l-15.523-13.855M187.094 175.09l-12.418-11.082" stroke-width="1.2" stroke="#000" stroke-miterlimit="10" fill="none"/><path d="M187.668 193.195l2.12-10.183" stroke-width="1.2" stroke="#00f" stroke-miterlimit="10" fill="none"/><path d="M189.79 183.012l2.116-10.188M176.383 158.97l-19.758 6.514M176.383 158.97l4.19-9.525" stroke-width="1.2" stroke="#000" stroke-miterlimit="10" fill="none"/><path d="M180.574 149.445l4.192-9.52" stroke-width="1.2" stroke="#00f" stroke-miterlimit="10" fill="none"/><path d="M156.625 165.484l-2.12 10.188" stroke-width="1.2" stroke="#000" stroke-miterlimit="10" fill="none"/><path d="M154.504 175.672l-2.117 10.183" stroke-width="1.2" stroke="#00f" stroke-miterlimit="10" fill="none"/><path d="M160.992 168.52l-1.695 8.148" stroke-width="1.2" stroke="#000" stroke-miterlimit="10" fill="none"/><path d="M159.297 176.668l-1.695 8.148" stroke-width="1.2" stroke="#00f" stroke-miterlimit="10" fill="none"/><path d="M156.625 165.484l-7.762-6.925" stroke-width="1.2" stroke="#000" stroke-miterlimit="10" fill="none"/><path d="M148.863 158.56l-7.76-6.93M152.387 185.855l7.76 6.93" stroke-width="1.2" stroke="#00f" stroke-miterlimit="10" fill="none"/><path d="M160.148 192.785l7.762 6.926" stroke-width="1.2" stroke="#000" stroke-miterlimit="10" fill="none"/><path d="M149.387 180.355h7v11h-7zm0 0" fill="#fff"/><use xlink:href="#a" x="149.387" y="189.019" fill="#00f"/><path d="M167.91 199.71l9.88-3.257" stroke-width="1.2" stroke="#000" stroke-miterlimit="10" fill="none"/><path d="M177.79 196.453l9.878-3.258" stroke-width="1.2" stroke="#00f" stroke-miterlimit="10" fill="none"/><path d="M168.352 194.41l7.906-2.605" stroke-width="1.2" stroke="#000" stroke-miterlimit="10" fill="none"/><path d="M176.258 191.805l7.902-2.606" stroke-width="1.2" stroke="#00f" stroke-miterlimit="10" fill="none"/><path d="M167.91 199.71l-4.238 20.372" stroke-width="1.2" stroke="#000" stroke-miterlimit="10" fill="none"/><path d="M184.668 187.695h7v11h-7zm0 0" fill="#fff"/><use xlink:href="#a" x="184.668" y="196.358" fill="#00f"/><path d="M141.102 151.63l-9.883 3.257" stroke-width="1.2" stroke="#00f" stroke-miterlimit="10" fill="none"/><path d="M131.22 154.887l-9.88 3.258" stroke-width="1.2" stroke="#000" stroke-miterlimit="10" fill="none"/><path d="M134.102 146.13h14v11h-14zm0 0" fill="#fff"/><g fill="#00f"><use xlink:href="#a" x="134.102" y="154.792"/><use xlink:href="#b" x="141.079" y="154.792"/></g><path d="M121.34 158.145l-15.524-13.856M105.816 144.29l-19.76 6.515M86.055 150.805l-7.762-6.926" stroke-width="1.2" stroke="#000" stroke-miterlimit="10" fill="none"/><path d="M78.293 143.88l-7.758-6.93M70.535 136.95l2.117-10.184" stroke-width="1.2" stroke="#00f" stroke-miterlimit="10" fill="none"/><path d="M72.652 126.766l2.118-10.188M50.773 143.465l9.88-3.258" stroke-width="1.2" stroke="#000" stroke-miterlimit="10" fill="none"/><path d="M60.652 140.207l9.883-3.258" stroke-width="1.2" stroke="#00f" stroke-miterlimit="10" fill="none"/><path d="M67.535 131.45h7v11h-7zm0 0" fill="#fff"/><use xlink:href="#a" x="67.535" y="140.112" fill="#00f"/><path d="M74.77 116.578l-15.524-13.855M59.246 102.723l-9.88 3.26" stroke-width="1.2" stroke="#000" stroke-miterlimit="10" fill="none"/><path d="M49.367 105.984l-9.88 3.258M39.488 109.242l-2.12 10.184" stroke-width="1.2" stroke="#f00" stroke-miterlimit="10" fill="none"/><path d="M37.367 119.426L35.25 129.61" stroke-width="1.2" stroke="#000" stroke-miterlimit="10" fill="none"/><path d="M35.488 103.742h8v11h-8zm0 0" fill="#fff"/><use xlink:href="#c" x="35.488" y="112.405" fill="#f00"/><path d="M35.25 129.61l15.523 13.855" stroke-width="1.2" stroke="#000" stroke-miterlimit="10" fill="none"/><path d="M184.766 139.926l10.347 1.043" stroke-width="1.2" stroke="#00f" stroke-miterlimit="10" fill="none"/><path d="M195.113 140.97l10.352 1.038" stroke-width="1.2" stroke="#000" stroke-miterlimit="10" fill="none"/><path d="M186.344 145.004l8.28.836" stroke-width="1.2" stroke="#00f" stroke-miterlimit="10" fill="none"/><path d="M194.625 145.84l8.28.832" stroke-width="1.2" stroke="#000" stroke-miterlimit="10" fill="none"/><path d="M181.766 134.426h7v11h-7zm0 0" fill="#fff"/><use xlink:href="#a" x="181.766" y="143.089" fill="#00f"/><path d="M205.465 142.008l13.855-15.52M219.32 126.488l20.37 4.235M222.355 122.117l16.297 3.39M212.805 106.727l6.515 19.76M239.69 130.723l13.857-15.52M253.547 115.203L247.03 95.44M248.246 114.758l-5.21-15.81M247.03 95.44l-20.37-4.237M247.03 95.44l6.93-7.76" stroke-width="1.2" stroke="#000" stroke-miterlimit="10" fill="none"/><path d="M253.96 87.68l6.927-7.762" stroke-width="1.2" stroke="#3cc" stroke-miterlimit="10" fill="none"/><path d="M226.66 91.203l-13.855 15.524M228.93 96.016l-11.086 12.418" stroke-width="1.2" stroke="#000" stroke-miterlimit="10" fill="none"/><path d="M257.887 74.418h6v11h-6zm0 0" fill="#fff"/><use xlink:href="#d" x="257.887" y="83.081" fill="#3cc"/></g></svg>
